vendor/shopware/storefront/Resources/app/storefront/dist/assets/icon/default/photocamera.svg

<svg xmlns="http://www.w3.org/2000/svg" width="24" height="24" viewBox="0 0 24 24">
  <path fill="#758CA3" fill-rule="evenodd" d="M3,6 L5.58578644,6 L8,3.58578644 C8.37507276,3.21071368 8.88378058,3 9.41421356,3 L14.5857864,3 C15.1162194,3 15.6249272,3.21071368 16,3.58578644 L18.4142136,6 L21,6 C22.6568542,6 24,7.34314575 24,9 L24,18 C24,19.6568542 22.6568542,21 21,21 L3,21 C1.34314575,21 3.33066907e-16,19.6568542 0,18 L0,9 C-1.66533454e-16,7.34314575 1.34314575,6 3,6 Z M3,8 C2.44771525,8 2,8.44771525 2,9 L2,18 C2,18.5522847 2.44771525,19 3,19 L21,19 C21.5522847,19 22,18.5522847 22,18 L22,9 C22,8.44771525 21.5522847,8 21,8 L18.4142136,8 C17.8837806,8 17.3750728,7.78928632 17,7.41421356 L14.5857864,5 L9.41421356,5 L7,7.41421356 C6.62492724,7.78928632 6.11621942,8 5.58578644,8 L3,8 Z M5,10 C5.55228475,10 6,10.4477153 6,11 C6,11.5522847 5.55228475,12 5,12 C4.44771525,12 4,11.5522847 4,11 C4,10.4477153 4.44771525,10 5,10 Z M12,18 C9.23857625,18 7,15.7614237 7,13 C7,10.2385763 9.23857625,8 12,8 C14.7614237,8 17,10.2385763 17,13 C17,15.7614237 14.7614237,18 12,18 Z M12,16 C13.6568542,16 15,14.6568542 15,13 C15,11.3431458 13.6568542,10 12,10 C10.3431458,10 9,11.3431458 9,13 C9,14.6568542 10.3431458,16 12,16 Z"/>
</svg>

<svg xmlns="http://www.w3.org/2000/svg" width="24" height="24" viewBox="0 0 24 24"><path fill="#758CA3" fill-rule="evenodd" d="M3 6h2.5858L8 3.5858A2 2 0 0 1 9.4142 3h5.1716A2 2 0 0 1 16 3.5858L18.4142 6H21c1.6569 0 3 1.3431 3 3v9c0 1.6569-1.3431 3-3 3H3c-1.6569 0-3-1.3431-3-3V9c0-1.6569 1.3431-3 3-3zm0 2c-.5523 0-1 .4477-1 1v9c0 .5523.4477 1 1 1h18c.5523 0 1-.4477 1-1V9c0-.5523-.4477-1-1-1h-2.5858A2 2 0 0 1 17 7.4142L14.5858 5H9.4142L7 7.4142A2 2 0 0 1 5.5858 8H3zm2 2c.5523 0 1 .4477 1 1s-.4477 1-1 1-1-.4477-1-1 .4477-1 1-1zm7 8c-2.7614 0-5-2.2386-5-5s2.2386-5 5-5 5 2.2386 5 5-2.2386 5-5 5zm0-2c1.6569 0 3-1.3431 3-3s-1.3431-3-3-3-3 1.3431-3 3 1.3431 3 3 3z"/></svg>
